public/icon/pen.svg

<svg width="20" height="20" viewBox="0 0 20 20" fill="none" xmlns="http://www.w3.org/2000/svg">
<path fill-rule="evenodd" clip-rule="evenodd" d="M4.05198 11.044C4.59571 9.2789 5.57557 7.0168 7.32262 5.17135C10.7479 1.55308 15.7271 1.01807 15.853 1.00468C15.9198 0.997584 16.0581 0.990493 16.2209 1.04865C16.4067 1.11503 16.5686 1.24838 16.6749 1.42233C16.8563 1.7103 17.876 3.52182 16.5085 5.71061C16.4406 5.81931 16.3588 5.92526 16.2681 6.02763C16.2792 6.13828 16.2712 6.2529 16.2417 6.36667C16.0773 7.00084 15.8648 7.666 15.5897 8.3313C15.1095 9.49282 14.4333 10.6671 13.4794 11.6748C11.6945 13.5602 9.35108 14.4263 7.52067 14.8302C6.59681 15.0341 5.78051 15.1254 5.19344 15.1657C5.12987 15.1701 5.06893 15.1739 5.01075 15.1772C4.98344 15.405 4.74138 17.6858 4.74138 18.0803C4.74138 18.5882 4.35156 19 3.87069 19C3.38983 19 3 18.5881 3 18.0803C3 17.5549 3.10126 16.5448 3.19276 15.7256C3.37065 14.133 3.58054 12.5743 4.05198 11.044ZM15.0551 4.69735C15.5138 3.9631 15.507 3.33618 15.416 2.93226C14.0869 3.18519 10.8723 4.02313 8.55396 6.47204C7.07077 8.03873 6.20361 10.0039 5.70789 11.6131C5.50652 12.2668 5.36925 12.8526 5.27755 13.3151C5.78159 13.273 6.43655 13.1902 7.16457 13.0297C8.83632 12.6607 10.8027 11.9009 12.2479 10.3741C12.9876 9.59289 13.5393 8.66553 13.9492 7.7016C13.099 8.18 12.1919 8.60859 11.547 8.83568C11.0907 8.99635 10.5976 8.73589 10.4456 8.25404C10.2935 7.77214 10.5401 7.25127 10.9962 7.09064C11.5835 6.88388 12.5274 6.43438 13.3944 5.92666C13.8248 5.67463 14.2181 5.41872 14.5274 5.18371C14.8612 4.93005 15.0152 4.76124 15.0551 4.69735Z" fill="black"/>
</svg>

<svg width="20" height="20" fill="none" xmlns="http://www.w3.org/2000/svg"><path fill-rule="evenodd" clip-rule="evenodd" d="M4.052 11.044c.544-1.765 1.524-4.027 3.27-5.873 3.426-3.618 8.405-4.153 8.531-4.166a.83.83 0 01.368.044c.186.066.348.2.454.373.181.288 1.201 2.1-.166 4.289-.068.108-.15.214-.24.317a.965.965 0 01-.027.339c-.165.634-.377 1.299-.652 1.964-.48 1.162-1.157 2.336-2.11 3.344-1.786 1.885-4.129 2.751-5.96 3.155a15.996 15.996 0 01-2.51.347c-.027.228-.269 2.509-.269 2.903 0 .508-.39.92-.87.92C3.39 19 3 18.588 3 18.08c0-.525.101-1.535.193-2.354.178-1.593.388-3.152.859-4.682zm11.003-6.347c.459-.734.452-1.36.361-1.765-1.33.253-4.544 1.091-6.862 3.54-1.483 1.567-2.35 3.532-2.846 5.141-.201.654-.339 1.24-.43 1.702a14.415 14.415 0 001.887-.285c1.671-.37 3.638-1.13 5.083-2.656.74-.781 1.291-1.708 1.701-2.672-.85.478-1.757.907-2.402 1.134-.456.16-.95-.1-1.101-.582-.152-.482.094-1.003.55-1.163.588-.207 1.531-.657 2.398-1.164.43-.252.824-.508 1.133-.743.334-.254.488-.423.528-.487z" fill="#000"/></svg>
